X: 24508
T: Lucy Farr's
R: jig
M: 6/8
K: Dmixolydian
|:D3 DEG|ABA ABd|e2d d2B|B2A AGE|
D3 DEG|ABA ABd|e2d BAG|(3EFE D D3:|
|:a3 aba|g2e ede|dBd edB|d3 d3|
eaa aba|g2e ede|ged BAG|(3EFE D D3:|

